X: 3965
T: Blackhaired Lass, The
R: reel
M: 4/4
K: Adorian
AB|:cA ~A2 cdec|d2 gd BGGB|cA ~A2 cdec|dfec A2 AB:|
cdef g2eg|f2df gfed|cdef gbag|fdec A2 AB|
cdef g2eg|f2df gfed|(3Bcd ef gbag|fdec A2||

